packages/icons/raw/imported/FilesMagazine.svg

<svg width="32" height="32" viewBox="0 0 32 32" fill="none" xmlns="http://www.w3.org/2000/svg">
<path d="M6.52884 9.08394L7.02883 9.08498L6.52884 9.08394ZM6.50318 21.4699L7.00318 21.471L6.50318 21.4699ZM22.9928 7.15721L22.866 6.67355V6.67355L22.9928 7.15721ZM16.7935 8.7823L16.9203 9.26596H16.9203L16.7935 8.7823ZM24.0063 23.4095L23.8797 22.9258L24.0063 23.4095ZM16.7751 25.3016L16.9017 25.7853L16.7751 25.3016ZM15.2746 8.78297L15.401 8.2992L15.2746 8.78297ZM9.03427 7.15301L9.16063 6.66924L9.03427 7.15301ZM15.2588 25.3023L15.1326 25.7861L15.2588 25.3023ZM7.99859 23.4094L8.12473 22.9255H8.12473L7.99859 23.4094ZM16.5 9.42309C16.5 9.14695 16.2761 8.92309 16 8.92309C15.7238 8.92309 15.5 9.14695 15.5 9.42309H16.5ZM15.5 24.7692C15.5 25.0454 15.7238 25.2692 16 25.2692C16.2761 25.2692 16.5 25.0454 16.5 24.7692H15.5ZM25 9.09185V21.4746H26V9.09185H25ZM6.02884 9.08291L6.00318 21.4689L7.00318 21.471L7.02883 9.08498L6.02884 9.08291ZM22.866 6.67355L16.6667 8.29864L16.9203 9.26596L23.1196 7.64087L22.866 6.67355ZM23.8797 22.9258L16.6485 24.8179L16.9017 25.7853L24.1328 23.8932L23.8797 22.9258ZM15.401 8.2992L9.16063 6.66924L8.90791 7.63678L15.1483 9.26674L15.401 8.2992ZM15.3849 24.8185L8.12473 22.9255L7.87244 23.8932L15.1326 25.7861L15.3849 24.8185ZM16.6667 8.29864C16.2518 8.4074 15.816 8.40759 15.401 8.2992L15.1483 9.26674C15.7292 9.41849 16.3395 9.41822 16.9203 9.26596L16.6667 8.29864ZM16.6485 24.8179C16.2343 24.9263 15.7992 24.9265 15.3849 24.8185L15.1326 25.7861C15.7127 25.9373 16.3218 25.9371 16.9017 25.7853L16.6485 24.8179ZM7.02883 9.08498C7.03087 8.1039 7.95867 7.38884 8.90791 7.63678L9.16063 6.66924C7.57856 6.25601 6.03222 7.44777 6.02884 9.08291L7.02883 9.08498ZM6.00318 21.4689C6.00082 22.6086 6.76959 23.6056 7.87244 23.8932L8.12473 22.9255C7.46302 22.753 7.00176 22.1548 7.00318 21.471L6.00318 21.4689ZM25 21.4746C25 22.1568 24.5396 22.7531 23.8797 22.9258L24.1328 23.8932C25.2328 23.6054 26 22.6116 26 21.4746H25ZM26 9.09185C26 7.45365 24.4507 6.25815 22.866 6.67355L23.1196 7.64087C24.0704 7.39163 25 8.10893 25 9.09185H26ZM15.5 9.42309V24.7692H16.5V9.42309H15.5Z" fill="black"/>
</svg>

<svg width="32" height="32" fill="none" xmlns="http://www.w3.org/2000/svg"><path d="m6.529 9.084.5.001-.5-.001ZM6.503 21.47l.5.001-.5-.001Zm16.49-14.313-.127-.483.127.483Zm-6.2 1.625.127.484-.127-.484Zm7.213 14.628-.126-.484.126.484Zm-7.23 1.892.126.483-.127-.483ZM15.274 8.783l.126-.484-.126.484Zm-6.24-1.63.126-.484-.127.484Zm6.224 18.15-.126.483.126-.484Zm-7.26-1.894.126-.483-.126.483ZM16.5 9.423a.5.5 0 0 0-1 0h1Zm-1 15.346a.5.5 0 1 0 1 0h-1ZM25 9.092v12.383h1V9.092h-1Zm-18.971-.01L6.003 21.47l1 .002.026-12.386-1-.002Zm16.837-2.408-6.2 1.625.254.967 6.2-1.625-.254-.967Zm1.014 16.252-7.232 1.892.254.967 7.23-1.892-.252-.967ZM15.4 8.299l-6.24-1.63-.253.968 6.24 1.63.253-.968Zm-.016 16.52-7.26-1.893-.253.967 7.26 1.893.253-.968Zm1.282-16.52a2.5 2.5 0 0 1-1.266 0l-.253.968a3.5 3.5 0 0 0 1.772-.001l-.253-.967Zm-.019 16.519a2.5 2.5 0 0 1-1.263 0l-.252.968a3.5 3.5 0 0 0 1.769 0l-.254-.968ZM7.028 9.085a1.5 1.5 0 0 1 1.88-1.448l.253-.968a2.5 2.5 0 0 0-3.132 2.414l1 .002ZM6.004 21.469a2.5 2.5 0 0 0 1.87 2.424l.252-.968a1.5 1.5 0 0 1-1.122-1.454l-1-.002ZM25 21.475a1.5 1.5 0 0 1-1.12 1.45l.253.968A2.5 2.5 0 0 0 26 21.475h-1Zm1-12.383a2.5 2.5 0 0 0-3.134-2.418l.254.967A1.5 1.5 0 0 1 25 9.09h1Zm-10.5.331V24.77h1V9.423h-1Z" fill="#000"/></svg>
